svg/Outline/volume.svg

<svg viewBox="0 0 24 24" xmlns="http://www.w3.org/2000/svg" width="24" height="24"><path fill-rule="evenodd" d="M14.31 5.7c.48.08.91.34 1.21.73.26.34.33.75.36 1.07q.04.5.03 1.22v6.56q0 .72-.03 1.22c-.03.32-.1.73-.36 1.07a2 2 0 0 1-1.41.74c-.44.03-.8-.15-1.09-.3q-.44-.26-1.02-.67l-1.92-1.32a8 8 0 0 0-.9-.58 3 3 0 0 0-.9-.28 8 8 0 0 0-1.08-.03l-.33-.01q-.18 0-.44-.1a1.4 1.4 0 0 1-.87-1.21v-3.62q0-.17.1-.44l.06-.13q.24-.45.7-.64l.13-.05q.19-.04.32-.05h.33c.63 0 .86 0 1.07-.04q.48-.07.9-.28c.2-.1.38-.22.9-.58L12 6.66q.59-.41 1.02-.67a2 2 0 0 1 1.09-.3zm-.4 1.86-.9.59-1.91 1.31c-.48.33-.8.55-1.14.72a5 5 0 0 1-2.6.5v2.65a5 5 0 0 1 2.6.5c.34.16.66.37 1.14.7l1.9 1.32c.43.3.7.47.9.59l.14.07.01-.01.03-.16c.02-.23.02-.55.02-1.06V8.72q0-.73-.02-1.06 0-.12-.03-.16h-.01z" clip-rule="evenodd"/></svg>

<svg viewBox="0 0 24 24" xmlns="http://www.w3.org/2000/svg" width="24" height="24"><path fill-rule="evenodd" d="M14.31 5.7c.48.08.91.34 1.21.73.26.34.33.75.36 1.07q.04.5.03 1.22v6.56q0 .72-.03 1.22c-.03.32-.1.73-.36 1.07a2 2 0 0 1-1.41.74c-.44.03-.8-.15-1.09-.3q-.44-.26-1.02-.67l-1.92-1.32a8 8 0 0 0-.9-.58 3 3 0 0 0-.9-.28 8 8 0 0 0-1.08-.03l-.33-.01q-.18 0-.44-.1a1.4 1.4 0 0 1-.87-1.21v-3.62q0-.17.1-.44l.06-.13q.24-.45.7-.64l.13-.05q.19-.04.32-.05h.33c.63 0 .86 0 1.07-.04q.48-.07.9-.28c.2-.1.38-.22.9-.58L12 6.66q.59-.41 1.02-.67a2 2 0 0 1 1.09-.3zM13.91 7.56L11.1 9.46C10.62 9.79 10.3 10.01 9.96 10.18A5 5 0 0 1 7.36 10.68L7.36 13.33A5 5 0 0 1 9.96 13.83C10.3 13.99 10.62 14.2 11.1 14.53L13 15.85C13.43 16.15 13.7 16.32 13.9 16.44L14.05 16.5L14.08 16.34C14.1 16.11 14.1 15.79 14.1 15.28L14.1 8.72Q14.1 7.99 14.08 7.66Q14.08 7.54 14.05 7.5L14.04 7.5Z" clip-rule="evenodd"/></svg>
